weather-moonset-down.svg

<svg fill="currentColor" viewBox="0 0 24 24"><path d="M3 12h4c0-1.33.53-2.6 1.46-3.54C9.4 7.53 10.67 7 12 7s2.6.53 3.54 1.46C16.47 9.4 17 10.67 17 12h4c.27 0 .5.11.71.29.19.21.29.45.29.71 0 .27-.1.5-.29.71-.21.19-.44.29-.71.29H3c-.26 0-.5-.1-.71-.29C2.11 13.5 2 13.27 2 13c0-.26.11-.5.29-.71.21-.18.45-.29.71-.29m9.71 8.71 3.11-3.11c.39-.39.39-1.03 0-1.42a.996.996 0 0 0-1.41 0L12 18.59l-2.41-2.41a.996.996 0 0 0-1.41 0c-.39.39-.39 1.03 0 1.42l3.11 3.11c.21.19.45.29.71.29s.5-.1.71-.29"/></svg>

<svg  viewBox="0 0 24 24" fill="currentColor"><path  d="M3 12H7C7 10.67 7.53 9.4 8.46 8.46C9.4 7.53 10.67 7 12 7C13.33 7 14.6 7.53 15.54 8.46C16.47 9.4 17 10.67 17 12H21C21.27 12 21.5 12.11 21.71 12.29C21.9 12.5 22 12.74 22 13C22 13.27 21.9 13.5 21.71 13.71C21.5 13.9 21.27 14 21 14H3C2.74 14 2.5 13.9 2.29 13.71C2.11 13.5 2 13.27 2 13C2 12.74 2.11 12.5 2.29 12.29C2.5 12.11 2.74 12 3 12M12.71 20.71L15.82 17.6C16.21 17.21 16.21 16.57 15.82 16.18C15.43 15.79 14.8 15.79 14.41 16.18L12 18.59L9.59 16.18C9.2 15.79 8.57 15.79 8.18 16.18C7.79 16.57 7.79 17.21 8.18 17.6L11.29 20.71C11.5 20.9 11.74 21 12 21C12.26 21 12.5 20.9 12.71 20.71Z"/></svg>
